X: 11494
T: Eddie Dooley's
R: reel
M: 4/4
K: Gmajor
BGG2 EGG2|edBA GFGE|DGBG dGBe|dBGB A2dc|
BGG2 EGG2|edBA GBdg|ec c/B/c BAGE|DEFA G4:|
bg~g2 agef|gfgf edBA|G3B dgba|gfed e2ga|
bg~g2 agef|gfgf edBd|gaba gece|fdcA G4:|

